X:1
T:Title
%%score { ( 1 3 ) | ( 2 4 ) }
L:1/8
Q:1/4=100
M:4/4
K:G
V:1 treble nm="Grand Piano"
V:3 treble 
V:2 bass 
V:4 bass 
V:1
 [DB]2 [B,D]2 [CE][DF][EG][^DA] | BBBc B4 | d2 e2 dGcB | z4 [FA]4 | d2 B2 AGFG | %5
w: L.~C.~Voke * * * * *|||||
 [^Ge]2 [Gd]2 c2 A2 | B [Gd]2 [EGc] [DGB]2 [CFA]2 | G8 | B d2 d edcB | [EA]2 [Ec]2 E4 | %10
w: |||||
 F A2 A BAFD | G2 B2 d4 | dddd [^Ge][Gd][Gc][GB] | [EA]2 [Ec]2 e2 c2 | %14
w: ||||
 B[Gd][Gd][EGc] [DGB]2 [CFA]2 | [B,DG]8 |] %16
w: ||
V:2
 [G,,G,]2 [G,,G,]2 [C,G,][C,G,][C,C][C,C] | [G,D][G,D][G,DG][G,EG] [G,DG]4 | %2
 [G,B,G]2 [G,CG]2 [G,B,G][G,B,D][G,EG][G,DG] | [A,^CG]2 [A,CG]2[K:bass] D2 z2 | %4
 [G,B,G]2 [G,DG]2 [G,CD][G,B,D][G,A,D][K:bass][G,B,D] | [E,B,]2 [E,E]2[K:treble] [A,EA]2 [A,CE]2 | %6
 [D,G,D] [D,B,]2 D, D,2 D,2 | [G,B,D]8 | [G,DG] [G,B,G]2 [G,B,G] [G,CG][G,B,G][G,EG][G,DG] | %9
 [C,C]2 [C,C]2 [A,C]4 | [D,A,C] [D,F,C]2 [D,F,C] [D,F,D][D,F,C][D,A,C][D,F,C] | %11
 [G,B,D]2 [G,DG]2 [G,B,G]4 | [G,B,G][G,B,G][G,B,G][G,B,G][K:bass] [E,B,][E,B,][E,E][E,D] | %13
 [A,C]2 [A,C]2 [C,A,]4 | [D,G,D][D,B,][D,B,]D, D,2 D,2 | G,8 |] %16
V:3
 x8 | x8 | x8 | B2 A2 z2 ^C2 | x8 | x8 | x8 | x8 | x8 | x8 | x8 | x8 | x8 | z4 E4 | x8 | x8 |] %16
V:4
 x8 | x8 | x8 | z4[K:bass] D,4 | x7[K:bass] x | x4[K:treble] x4 | x8 | x8 | x8 | x8 | x8 | x8 | %12
 x4[K:bass] x4 | x8 | x8 | x8 |] %16

